packages/core/src/svgs/networks/branded/apex-layer.svg

<svg width="24" height="24" viewBox="0 0 24 24" fill="none" xmlns="http://www.w3.org/2000/svg">
<path d="M8.03116 6.33769C7.67054 6.54999 7.2555 6.63039 6.84588 6.58877C6.5955 6.56297 6.32741 6.54857 6.04028 6.54857C3.93781 6.54857 2.8614 7.28906 2 8.12127V12.3932C2.96754 11.4848 3.78812 10.5693 6.04028 10.5693V10.5894C6.10696 10.5837 6.17364 10.5779 6.2376 10.5722C7.93726 10.6138 8.78642 11.2021 9.54575 11.8909C9.08308 12.3716 8.64489 12.8451 8.08015 13.1895C7.71409 13.4134 7.28952 13.4995 6.86766 13.4536C6.61047 13.4263 6.33558 13.4105 6.04028 13.4105C3.93781 13.4105 2.8614 14.1509 2 14.9832V19.255C2.96754 18.3468 3.78812 17.4313 6.04028 17.4313V17.4685C6.14915 17.46 6.25529 17.4499 6.35871 17.4385C10.2248 17.5977 9.57027 20.6613 14.0201 21V17.2547C12.1477 17.2547 11.3516 16.2833 10.414 15.3161C11.2277 14.5614 12.1082 13.9013 14.0201 13.9013C18.2441 13.9013 17.4303 17.1227 22 17.4685V13.7233C18.2768 13.7233 18.8075 9.88056 14.0201 9.88056C13.6486 9.88056 13.3697 9.89061 13.1071 9.92075C12.6675 9.97385 12.2225 9.88198 11.8442 9.64095C11.3121 9.30228 10.8304 8.88186 10.4044 8.44269C11.221 7.6851 12.1 7.01923 14.0201 7.01923C18.2441 7.01923 17.4303 10.2408 22 10.5865V6.84277C18.2754 6.84277 18.8075 3 14.0201 3C10.3201 3 9.7975 5.29444 8.03252 6.33769H8.03116Z" fill="url(#paint0_linear_111_65)"/>
<defs>
<linearGradient id="paint0_linear_111_65" x1="12" y1="3" x2="12" y2="21" gradientUnits="userSpaceOnUse">
<stop stop-color="#004EF4"/>
<stop offset="1" stop-color="#00CFFC"/>
</linearGradient>
</defs>
</svg>

<svg xmlns="http://www.w3.org/2000/svg" width="24" height="24" fill="none" viewBox="0 0 24 24">
    <path fill="url(#apex-layer__a)" d="M8.031 6.338a1.94 1.94 0 0 1-1.185.25 8 8 0 0 0-.806-.04c-2.102 0-3.179.741-4.04 1.573v4.272c.968-.908 1.788-1.824 4.04-1.824v.02l.198-.017c1.7.042 2.548.63 3.308 1.319-.463.48-.901.954-1.466 1.299-.366.223-.79.31-1.212.264a8 8 0 0 0-.828-.043c-2.102 0-3.179.74-4.04 1.572v4.272c.968-.908 1.788-1.824 4.04-1.824v.037q.164-.012.319-.03c3.866.16 3.211 3.223 7.661 3.562v-3.745c-1.872 0-2.668-.972-3.606-1.939.814-.755 1.694-1.415 3.606-1.415 4.224 0 3.41 3.222 7.98 3.567v-3.745c-3.723 0-3.192-3.842-7.98-3.842-.371 0-.65.01-.913.04a1.9 1.9 0 0 1-1.263-.28 8 8 0 0 1-1.44-1.198c.817-.758 1.696-1.424 3.616-1.424 4.224 0 3.41 3.222 7.98 3.567V6.843C18.275 6.843 18.808 3 14.02 3c-3.7 0-4.222 2.294-5.987 3.338z"/>
    <defs>
        <linearGradient id="apex-layer__a" x1="12" x2="12" y1="3" y2="21" gradientUnits="userSpaceOnUse">
            <stop stop-color="#004EF4"/>
            <stop offset="1" stop-color="#00CFFC"/>
        </linearGradient>
    </defs>
</svg>
